svg/color/algoblk.svg

<?xml version="1.0" encoding="UTF-8" ?>
<!DOCTYPE svg PUBLIC "-//W3C//DTD SVG 1.1//EN" "http://www.w3.org/Graphics/SVG/1.1/DTD/svg11.dtd">
<svg width="250pt" height="250pt" viewBox="0 0 250 250" version="1.1" xmlns="http://www.w3.org/2000/svg">
<g id="#ffffffff">
<path fill="#ffffff" opacity="1.00" d=" M 0.00 0.00 L 250.00 0.00 L 250.00 250.00 L 0.00 250.00 L 0.00 0.00 M 49.70 111.42 C 48.20 120.00 46.05 128.50 43.80 136.91 C 43.75 137.66 43.70 138.41 43.66 139.17 C 44.98 139.18 46.31 139.19 47.64 139.22 C 48.22 137.43 48.63 135.58 48.82 133.70 C 50.73 133.70 52.63 133.71 54.54 133.70 C 54.88 135.41 55.27 137.11 55.66 138.81 C 56.68 138.93 58.74 139.18 59.77 139.30 C 58.16 129.83 55.44 120.58 53.46 111.19 C 52.20 111.25 50.95 111.32 49.70 111.42 M 62.20 111.24 C 62.19 120.57 62.06 129.90 62.30 139.22 C 66.11 139.08 69.93 139.08 73.75 139.20 C 73.74 137.73 73.72 136.26 73.69 134.79 C 71.26 134.85 68.82 134.85 66.39 134.81 C 66.48 126.95 66.35 119.09 66.46 111.23 C 65.04 111.23 63.62 111.23 62.20 111.24 M 76.65 115.91 C 76.34 122.35 76.43 128.82 76.63 135.27 C 77.41 136.26 78.17 137.26 78.92 138.27 C 80.88 139.06 82.95 139.36 85.05 139.26 C 85.96 138.87 86.87 138.52 87.80 138.20 C 91.56 134.58 89.80 128.92 90.30 124.32 C 88.02 123.93 85.71 123.75 83.40 123.82 C 83.39 124.85 83.37 126.90 83.36 127.93 C 87.89 127.21 85.46 132.18 85.54 134.63 C 83.96 134.70 80.80 135.56 80.82 133.04 C 80.98 127.11 79.99 120.99 81.55 115.20 C 82.83 115.31 84.10 115.43 85.37 115.58 C 85.48 116.91 85.58 118.24 85.68 119.57 C 87.12 119.57 88.56 119.57 90.01 119.58 C 89.77 116.85 90.05 113.19 87.06 111.83 C 83.40 109.46 77.26 111.28 76.65 115.91 M 96.23 111.84 C 95.82 112.32 95.01 113.29 94.60 113.77 C 94.40 114.31 93.99 115.40 93.78 115.94 C 93.78 121.99 93.54 128.04 93.87 134.08 C 94.09 136.86 96.55 138.55 98.98 139.32 C 102.43 139.64 107.20 138.34 107.55 134.26 C 107.90 127.74 107.83 121.18 107.50 114.66 C 105.34 110.48 100.12 110.08 96.23 111.84 M 111.34 111.26 C 111.35 120.42 111.43 129.59 111.29 138.75 C 115.25 139.20 120.00 139.91 123.36 137.32 C 125.25 133.88 125.02 129.21 123.43 125.68 C 119.97 125.43 122.76 123.13 123.99 122.03 C 124.52 119.69 124.21 117.26 124.29 114.88 C 122.12 109.63 115.76 111.54 111.34 111.26 M 127.67 111.20 C 127.65 120.39 127.71 129.58 127.61 138.77 C 131.53 139.43 135.50 139.02 139.45 139.17 C 139.39 137.70 139.35 136.23 139.30 134.77 C 136.78 134.92 134.26 134.88 131.75 134.78 C 131.87 126.94 131.82 119.09 131.80 111.25 C 130.42 111.23 129.04 111.22 127.67 111.20 M 142.47 115.08 C 141.34 118.93 142.09 123.01 141.88 126.96 C 141.95 130.87 141.37 135.50 144.64 138.38 C 146.77 139.02 148.97 139.32 151.19 139.34 C 152.84 138.43 154.40 137.34 155.70 135.96 C 156.43 128.57 156.58 121.00 155.57 113.63 C 155.36 113.60 154.95 113.55 154.74 113.52 C 152.14 109.19 143.89 110.05 142.47 115.08 M 160.75 113.36 C 158.72 117.64 159.74 122.48 159.49 127.03 C 159.61 130.54 158.88 134.74 161.51 137.55 C 163.12 139.44 165.83 139.25 168.08 139.29 C 169.18 138.62 170.28 137.97 171.39 137.32 C 172.62 135.22 172.84 132.80 172.79 130.42 C 171.37 130.43 169.96 130.44 168.54 130.45 C 168.47 131.89 168.66 133.47 167.75 134.71 C 166.62 134.74 165.49 134.73 164.36 134.68 C 163.46 129.12 164.01 123.48 163.80 117.89 C 164.02 117.23 164.47 115.92 164.70 115.26 C 165.86 115.35 167.03 115.44 168.20 115.57 C 168.38 116.99 168.56 118.41 168.75 119.83 C 170.10 119.76 171.45 119.71 172.80 119.68 C 172.56 117.34 173.06 114.57 171.15 112.78 C 169.55 111.04 167.09 110.74 164.86 110.66 C 163.44 111.45 161.65 111.89 160.75 113.36 M 185.58 111.43 C 184.18 113.89 183.38 116.63 182.25 119.21 C 181.62 120.78 181.11 122.40 180.63 124.02 C 179.94 119.80 180.31 115.53 180.30 111.29 C 178.84 111.27 177.37 111.27 175.91 111.28 C 176.18 120.57 175.79 129.87 176.19 139.15 C 177.62 139.17 179.08 139.11 180.45 138.62 C 180.46 135.80 179.49 132.50 181.16 129.98 C 181.59 128.99 182.13 128.07 182.79 127.21 C 183.75 131.30 185.29 135.22 186.66 139.19 C 187.76 139.18 189.96 139.16 191.06 139.15 C 190.14 136.07 189.09 133.03 187.84 130.07 C 187.05 127.44 185.48 124.98 185.22 122.22 C 186.34 118.33 188.99 115.06 190.03 111.12 C 188.55 111.20 187.03 111.09 185.58 111.43 M 193.86 112.83 C 191.93 115.24 192.16 118.60 192.68 121.45 C 193.84 125.50 198.60 126.19 201.61 128.41 C 201.65 130.43 201.64 132.46 201.61 134.49 C 200.00 134.91 198.37 134.89 196.78 134.41 C 196.63 133.20 196.48 131.99 196.33 130.78 C 195.34 130.81 193.34 130.86 192.35 130.89 C 192.35 132.29 192.47 133.68 192.68 135.06 C 194.22 140.73 204.08 140.82 205.71 135.15 C 206.83 131.17 206.50 125.59 202.12 123.73 C 200.11 122.87 197.86 122.06 196.64 120.13 C 196.48 118.56 196.31 116.83 197.27 115.46 C 198.60 114.85 200.00 115.29 201.34 115.64 C 201.46 116.84 201.60 118.05 201.75 119.25 C 202.92 119.25 204.09 119.25 205.26 119.27 C 205.53 118.98 206.07 118.39 206.34 118.09 C 205.67 116.28 205.53 114.20 204.24 112.68 C 201.42 110.08 196.62 110.17 193.86 112.83 Z" />
<path fill="#ffffff" opacity="1.00" d=" M 98.44 115.50 C 100.01 115.32 101.82 114.82 103.18 115.93 C 103.78 121.61 103.39 127.38 103.42 133.09 C 103.09 135.55 100.14 134.77 98.46 134.61 C 97.97 128.26 97.99 121.85 98.44 115.50 Z" />
<path fill="#ffffff" opacity="1.00" d=" M 115.54 115.18 C 116.92 115.22 118.30 115.27 119.68 115.34 C 120.14 117.69 120.21 120.09 119.53 122.41 C 118.22 122.45 116.91 122.51 115.60 122.55 C 115.60 120.09 115.58 117.63 115.54 115.18 Z" />
<path fill="#ffffff" opacity="1.00" d=" M 146.54 115.81 C 147.18 115.61 148.46 115.23 149.11 115.04 C 149.69 115.19 150.86 115.51 151.45 115.66 C 151.89 121.86 151.98 128.13 151.44 134.32 C 150.84 134.52 149.65 134.91 149.05 135.11 C 148.45 134.91 147.23 134.51 146.62 134.31 C 146.14 128.15 146.33 121.97 146.54 115.81 Z" />
<path fill="#ffffff" opacity="1.00" d=" M 50.29 119.56 C 50.93 119.40 51.57 119.24 52.21 119.09 C 52.14 122.71 53.23 126.19 53.89 129.71 C 52.42 129.71 50.95 129.68 49.49 129.65 C 50.42 126.42 51.03 123.10 51.51 119.77 C 51.21 119.72 50.60 119.61 50.29 119.56 Z" />
<path fill="#ffffff" opacity="1.00" d=" M 115.61 126.50 C 116.88 126.54 118.14 126.58 119.42 126.60 C 120.97 129.08 120.44 132.05 120.07 134.78 C 118.56 134.78 117.04 134.78 115.53 134.78 C 115.59 132.02 115.61 129.26 115.61 126.50 Z" />
</g>
<g id="#040404ff">
<path fill="#040404" opacity="1.00" d=" M 49.70 111.42 C 50.95 111.32 52.20 111.25 53.46 111.19 C 55.44 120.58 58.16 129.83 59.77 139.30 C 58.74 139.18 56.68 138.93 55.66 138.81 C 55.27 137.11 54.88 135.41 54.54 133.70 C 52.63 133.71 50.73 133.70 48.82 133.70 C 48.63 135.58 48.22 137.43 47.64 139.22 C 46.31 139.19 44.98 139.18 43.66 139.17 C 43.70 138.41 43.75 137.66 43.80 136.91 C 46.05 128.50 48.20 120.00 49.70 111.42 M 50.29 119.56 C 50.60 119.61 51.21 119.72 51.51 119.77 C 51.03 123.10 50.42 126.42 49.49 129.65 C 50.95 129.68 52.42 129.71 53.89 129.71 C 53.23 126.19 52.14 122.71 52.21 119.09 C 51.57 119.24 50.93 119.40 50.29 119.56 Z" />
<path fill="#040404" opacity="1.00" d=" M 62.20 111.24 C 63.62 111.23 65.04 111.23 66.46 111.23 C 66.35 119.09 66.48 126.95 66.39 134.81 C 68.82 134.85 71.26 134.85 73.69 134.79 C 73.72 136.26 73.74 137.73 73.75 139.20 C 69.93 139.08 66.11 139.08 62.30 139.22 C 62.06 129.90 62.19 120.57 62.20 111.24 Z" />
<path fill="#040404" opacity="1.00" d=" M 76.65 115.91 C 77.26 111.28 83.40 109.46 87.06 111.83 C 90.05 113.19 89.77 116.85 90.01 119.58 C 88.56 119.57 87.12 119.57 85.68 119.57 C 85.58 118.24 85.48 116.91 85.37 115.58 C 84.10 115.43 82.83 115.31 81.55 115.20 C 79.99 120.99 80.98 127.11 80.82 133.04 C 80.80 135.56 83.96 134.70 85.54 134.63 C 85.46 132.18 87.89 127.21 83.36 127.93 C 83.37 126.90 83.39 124.85 83.40 123.82 C 85.71 123.75 88.02 123.93 90.30 124.32 C 89.80 128.92 91.56 134.58 87.80 138.20 C 86.87 138.52 85.96 138.87 85.05 139.26 C 82.95 139.36 80.88 139.06 78.92 138.27 C 78.17 137.26 77.41 136.26 76.63 135.27 C 76.43 128.82 76.34 122.35 76.65 115.91 Z" />
<path fill="#040404" opacity="1.00" d=" M 96.23 111.84 C 100.12 110.08 105.34 110.48 107.50 114.66 C 107.83 121.18 107.90 127.74 107.55 134.26 C 107.20 138.34 102.43 139.64 98.98 139.32 C 96.55 138.55 94.09 136.86 93.87 134.08 C 93.54 128.04 93.78 121.99 93.78 115.94 C 93.99 115.40 94.40 114.31 94.60 113.77 C 95.01 113.29 95.82 112.32 96.23 111.84 M 98.44 115.50 C 97.99 121.85 97.97 128.26 98.46 134.61 C 100.14 134.77 103.09 135.55 103.42 133.09 C 103.39 127.38 103.78 121.61 103.18 115.93 C 101.82 114.82 100.01 115.32 98.44 115.50 Z" />
<path fill="#040404" opacity="1.00" d=" M 111.34 111.26 C 115.76 111.54 122.12 109.63 124.29 114.88 C 124.21 117.26 124.52 119.69 123.99 122.03 C 122.76 123.13 119.97 125.43 123.43 125.68 C 125.02 129.21 125.25 133.88 123.36 137.32 C 120.00 139.91 115.25 139.20 111.29 138.75 C 111.43 129.59 111.35 120.42 111.34 111.26 M 115.54 115.18 C 115.58 117.63 115.60 120.09 115.60 122.55 C 116.91 122.51 118.22 122.45 119.53 122.41 C 120.21 120.09 120.14 117.69 119.68 115.34 C 118.30 115.27 116.92 115.22 115.54 115.18 M 115.61 126.50 C 115.61 129.26 115.59 132.02 115.53 134.78 C 117.04 134.78 118.56 134.78 120.07 134.78 C 120.44 132.05 120.97 129.08 119.42 126.60 C 118.14 126.58 116.88 126.54 115.61 126.50 Z" />
<path fill="#040404" opacity="1.00" d=" M 127.67 111.20 C 129.04 111.22 130.42 111.23 131.80 111.25 C 131.82 119.09 131.87 126.94 131.75 134.78 C 134.26 134.88 136.78 134.92 139.30 134.77 C 139.35 136.23 139.39 137.70 139.45 139.17 C 135.50 139.02 131.53 139.43 127.61 138.77 C 127.71 129.58 127.65 120.39 127.67 111.20 Z" />
<path fill="#040404" opacity="1.00" d=" M 142.47 115.08 C 143.89 110.05 152.14 109.19 154.74 113.52 C 154.95 113.55 155.36 113.60 155.57 113.63 C 156.58 121.00 156.43 128.57 155.70 135.96 C 154.40 137.34 152.84 138.43 151.19 139.34 C 148.97 139.32 146.77 139.02 144.64 138.38 C 141.37 135.50 141.95 130.87 141.88 126.96 C 142.09 123.01 141.34 118.93 142.47 115.08 M 146.54 115.81 C 146.33 121.97 146.14 128.15 146.62 134.31 C 147.23 134.51 148.45 134.91 149.05 135.11 C 149.65 134.91 150.84 134.52 151.44 134.32 C 151.98 128.13 151.89 121.86 151.45 115.66 C 150.86 115.51 149.69 115.19 149.11 115.04 C 148.46 115.23 147.18 115.61 146.54 115.81 Z" />
<path fill="#040404" opacity="1.00" d=" M 160.75 113.36 C 161.65 111.89 163.44 111.45 164.86 110.66 C 167.09 110.74 169.55 111.04 171.15 112.78 C 173.06 114.57 172.56 117.34 172.80 119.68 C 171.45 119.71 170.10 119.76 168.75 119.83 C 168.56 118.41 168.38 116.99 168.20 115.57 C 167.03 115.44 165.86 115.35 164.70 115.26 C 164.47 115.92 164.02 117.23 163.80 117.89 C 164.01 123.48 163.46 129.12 164.36 134.68 C 165.49 134.73 166.62 134.74 167.75 134.71 C 168.66 133.47 168.47 131.89 168.54 130.45 C 169.96 130.44 171.37 130.43 172.79 130.42 C 172.84 132.80 172.62 135.22 171.39 137.32 C 170.28 137.97 169.18 138.62 168.08 139.29 C 165.83 139.25 163.12 139.44 161.51 137.55 C 158.88 134.74 159.61 130.54 159.49 127.03 C 159.74 122.48 158.72 117.64 160.75 113.36 Z" />
<path fill="#040404" opacity="1.00" d=" M 185.58 111.43 C 187.03 111.09 188.55 111.20 190.03 111.12 C 188.99 115.06 186.34 118.33 185.22 122.22 C 185.48 124.98 187.05 127.44 187.84 130.07 C 189.09 133.03 190.14 136.07 191.06 139.15 C 189.96 139.16 187.76 139.18 186.66 139.19 C 185.29 135.22 183.75 131.30 182.79 127.21 C 182.13 128.07 181.59 128.99 181.16 129.98 C 179.49 132.50 180.46 135.80 180.45 138.62 C 179.08 139.11 177.62 139.17 176.19 139.15 C 175.79 129.87 176.18 120.57 175.91 111.28 C 177.37 111.27 178.84 111.27 180.30 111.29 C 180.31 115.53 179.94 119.80 180.63 124.02 C 181.11 122.40 181.62 120.78 182.25 119.21 C 183.38 116.63 184.18 113.89 185.58 111.43 Z" />
<path fill="#040404" opacity="1.00" d=" M 193.86 112.83 C 196.62 110.17 201.42 110.08 204.24 112.68 C 205.53 114.20 205.67 116.28 206.34 118.09 C 206.07 118.39 205.53 118.98 205.26 119.27 C 204.09 119.25 202.92 119.25 201.75 119.25 C 201.60 118.05 201.46 116.84 201.34 115.64 C 200.00 115.29 198.60 114.85 197.27 115.46 C 196.31 116.83 196.48 118.56 196.64 120.13 C 197.86 122.06 200.11 122.87 202.12 123.73 C 206.50 125.59 206.83 131.17 205.71 135.15 C 204.08 140.82 194.22 140.73 192.68 135.06 C 192.47 133.68 192.35 132.29 192.35 130.89 C 193.34 130.86 195.34 130.81 196.33 130.78 C 196.48 131.99 196.63 133.20 196.78 134.41 C 198.37 134.89 200.00 134.91 201.61 134.49 C 201.64 132.46 201.65 130.43 201.61 128.41 C 198.60 126.19 193.84 125.50 192.68 121.45 C 192.16 118.60 191.93 115.24 193.86 112.83 Z" />
</g>
</svg>

<?xml version="1.0" encoding="utf-8"?>
<!-- Generator: Adobe Illustrator 26.0.3, SVG Export Plug-In . SVG Version: 6.00 Build 0)  -->
<svg version="1.1" id="Layer_1" xmlns="http://www.w3.org/2000/svg" xmlns:xlink="http://www.w3.org/1999/xlink" x="0px" y="0px"
	 viewBox="0 0 250 250" style="enable-background:new 0 0 250 250;" xml:space="preserve">
<style type="text/css">
	.st0{fill:#FFFFFF;}
	.st1{fill:#040404;}
</style>
<circle class="st0" cx="124" cy="124.5" r="125"/>
<g id="_x23_040404ff">
	<path class="st1" d="M49.7,111.4c1.2-0.1,2.5-0.2,3.8-0.2c2,9.4,4.7,18.6,6.3,28.1c-1-0.1-3.1-0.4-4.1-0.5
		c-0.4-1.7-0.8-3.4-1.1-5.1c-1.9,0-3.8,0-5.7,0c-0.2,1.9-0.6,3.7-1.2,5.5c-1.3,0-2.7,0-4-0.1c0-0.8,0.1-1.5,0.1-2.3
		C46,128.5,48.2,120,49.7,111.4 M50.3,119.6c0.3,0.1,0.9,0.2,1.2,0.2c-0.5,3.3-1.1,6.7-2,9.9c1.5,0,2.9,0.1,4.4,0.1
		c-0.7-3.5-1.8-7-1.7-10.6C51.6,119.2,50.9,119.4,50.3,119.6z"/>
	<path class="st1" d="M62.2,111.2c1.4,0,2.8,0,4.3,0c-0.1,7.9,0,15.7-0.1,23.6c2.4,0,4.9,0,7.3,0c0,1.5,0,2.9,0.1,4.4
		c-3.8-0.1-7.6-0.1-11.5,0C62.1,129.9,62.2,120.6,62.2,111.2z"/>
	<path class="st1" d="M76.7,115.9c0.6-4.6,6.8-6.5,10.4-4.1c3,1.4,2.7,5,3,7.8c-1.5,0-2.9,0-4.3,0c-0.1-1.3-0.2-2.7-0.3-4
		c-1.3-0.2-2.5-0.3-3.8-0.4C80,121,81,127.1,80.8,133c0,2.5,3.1,1.7,4.7,1.6c-0.1-2.5,2.3-7.4-2.2-6.7c0-1,0-3.1,0-4.1
		c2.3-0.1,4.6,0.1,6.9,0.5c-0.5,4.6,1.3,10.3-2.5,13.9c-0.9,0.3-1.8,0.7-2.8,1.1c-2.1,0.1-4.2-0.2-6.1-1c-0.8-1-1.5-2-2.3-3
		C76.4,128.8,76.3,122.3,76.7,115.9z"/>
	<path class="st1" d="M96.2,111.8c3.9-1.8,9.1-1.4,11.3,2.8c0.3,6.5,0.4,13.1,0.1,19.6c-0.4,4.1-5.1,5.4-8.6,5.1
		c-2.4-0.8-4.9-2.5-5.1-5.2c-0.3-6-0.1-12.1-0.1-18.1c0.2-0.5,0.6-1.6,0.8-2.2C95,113.3,95.8,112.3,96.2,111.8 M98.4,115.5
		c-0.5,6.3-0.5,12.8,0,19.1c1.7,0.2,4.6,0.9,5-1.5c0-5.7,0.4-11.5-0.2-17.2C101.8,114.8,100,115.3,98.4,115.5z"/>
	<path class="st1" d="M111.3,111.3c4.4,0.3,10.8-1.6,13,3.6c-0.1,2.4,0.2,4.8-0.3,7.2c-1.2,1.1-4,3.4-0.6,3.7
		c1.6,3.5,1.8,8.2-0.1,11.6c-3.4,2.6-8.1,1.9-12.1,1.4C111.4,129.6,111.3,120.4,111.3,111.3 M115.5,115.2c0,2.4,0.1,4.9,0.1,7.4
		c1.3,0,2.6-0.1,3.9-0.1c0.7-2.3,0.6-4.7,0.2-7.1C118.3,115.3,116.9,115.2,115.5,115.2 M115.6,126.5c0,2.8,0,5.5-0.1,8.3
		c1.5,0,3,0,4.5,0c0.4-2.7,0.9-5.7-0.7-8.2C118.1,126.6,116.9,126.5,115.6,126.5z"/>
	<path class="st1" d="M127.7,111.2c1.4,0,2.8,0,4.1,0.1c0,7.8,0.1,15.7-0.1,23.5c2.5,0.1,5,0.1,7.6,0c0.1,1.5,0.1,2.9,0.1,4.4
		c-3.9-0.1-7.9,0.3-11.8-0.4C127.7,129.6,127.7,120.4,127.7,111.2z"/>
	<path class="st1" d="M142.5,115.1c1.4-5,9.7-5.9,12.3-1.6c0.2,0,0.6,0.1,0.8,0.1c1,7.4,0.9,14.9,0.1,22.3c-1.3,1.4-2.9,2.5-4.5,3.4
		c-2.2,0-4.4-0.3-6.6-1c-3.3-2.9-2.7-7.5-2.8-11.4C142.1,123,141.3,118.9,142.5,115.1 M146.5,115.8c-0.2,6.2-0.4,12.3,0.1,18.5
		c0.6,0.2,1.8,0.6,2.4,0.8c0.6-0.2,1.8-0.6,2.4-0.8c0.5-6.2,0.4-12.5,0-18.7c-0.6-0.2-1.8-0.5-2.3-0.6
		C148.5,115.2,147.2,115.6,146.5,115.8z"/>
	<path class="st1" d="M160.8,113.4c0.9-1.5,2.7-1.9,4.1-2.7c2.2,0.1,4.7,0.4,6.3,2.1c1.9,1.8,1.4,4.6,1.7,6.9
		c-1.4,0-2.7,0.1-4.1,0.2c-0.2-1.4-0.4-2.8-0.6-4.3c-1.2-0.1-2.3-0.2-3.5-0.3c-0.2,0.7-0.7,2-0.9,2.6c0.2,5.6-0.3,11.2,0.6,16.8
		c1.1,0.1,2.3,0.1,3.4,0c0.9-1.2,0.7-2.8,0.8-4.3c1.4,0,2.8,0,4.2,0c0.1,2.4-0.2,4.8-1.4,6.9c-1.1,0.6-2.2,1.3-3.3,2
		c-2.2,0-5,0.2-6.6-1.7c-2.6-2.8-1.9-7-2-10.5C159.7,122.5,158.7,117.6,160.8,113.4z"/>
	<path class="st1" d="M185.6,111.4c1.4-0.3,3-0.2,4.4-0.3c-1,3.9-3.7,7.2-4.8,11.1c0.3,2.8,1.8,5.2,2.6,7.9c1.2,3,2.3,6,3.2,9.1
		c-1.1,0-3.3,0-4.4,0c-1.4-4-2.9-7.9-3.9-12c-0.7,0.9-1.2,1.8-1.6,2.8c-1.7,2.5-0.7,5.8-0.7,8.6c-1.4,0.5-2.8,0.6-4.3,0.5
		c-0.4-9.3,0-18.6-0.3-27.9c1.5,0,2.9,0,4.4,0c0,4.2-0.4,8.5,0.3,12.7c0.5-1.6,1-3.2,1.6-4.8C183.4,116.6,184.2,113.9,185.6,111.4z"
		/>
	<path class="st1" d="M193.9,112.8c2.8-2.7,7.6-2.8,10.4-0.2c1.3,1.5,1.4,3.6,2.1,5.4c-0.3,0.3-0.8,0.9-1.1,1.2c-1.2,0-2.3,0-3.5,0
		c-0.1-1.2-0.3-2.4-0.4-3.6c-1.3-0.3-2.7-0.8-4.1-0.2c-1,1.4-0.8,3.1-0.6,4.7c1.2,1.9,3.5,2.7,5.5,3.6c4.4,1.9,4.7,7.4,3.6,11.4
		c-1.6,5.7-11.5,5.6-13-0.1c-0.2-1.4-0.3-2.8-0.3-4.2c1,0,3-0.1,4-0.1c0.1,1.2,0.3,2.4,0.4,3.6c1.6,0.5,3.2,0.5,4.8,0.1
		c0-2,0-4.1,0-6.1c-3-2.2-7.8-2.9-8.9-7C192.2,118.6,191.9,115.2,193.9,112.8z"/>
</g>
</svg>
